X: 10440
T: Donegal Lass, The
R: jig
M: 6/8
K: Dmajor
Ace aed|cdB A3|GBd G3|FAd F3|
Ace aed|cdB A2^g|aed cdB|A3 A3:|
GBd G3|FAd F3|e3 ecA|efe ecA|
GBd G3|FAd F2^g|aed cdB|A3 A3:|

